icons/CS.svg

<svg xmlns="http://www.w3.org/2000/svg" width="256" height="256" fill="none" viewBox="0 0 256 256"><rect width="256" height="256" fill="#953CAD" rx="60"/><path fill="#fff" d="M195.436 100.668V114.142H208.91V100.668H215.647V114.142H229.12V120.879H215.647V134.352H229.12V141.089H215.647V154.563H208.91V141.089H195.436V154.563H188.699V141.089H175.226V134.352H188.699V120.879H175.226V114.142H188.699V100.668H195.436ZM208.91 120.879H195.436V134.352H208.91V120.879Z"/><path fill="#fff" d="M122.001 33C157.144 33 187.828 52.0863 204.262 80.4561L204.102 80.183L162.753 103.991C154.607 90.1977 139.672 80.8892 122.54 80.6975L122.001 80.6945C95.875 80.6945 74.6945 101.874 74.6945 127.999C74.6945 136.543 76.9723 144.552 80.9335 151.469C89.0876 165.704 104.416 175.306 122.001 175.306C139.693 175.306 155.109 165.582 163.222 151.195L163.025 151.54L204.311 175.458C188.057 203.588 157.794 222.615 123.059 222.994L122.001 223C86.746 223 55.9753 203.796 39.582 175.276C31.5791 161.353 27 145.212 27 127.999C27 75.5334 69.5323 33 122.001 33Z"/></svg>

<svg xmlns="http://www.w3.org/2000/svg" width="256" height="256" fill="none" viewBox="0 0 256 256"><rect width="256" height="256" fill="#953CAD" rx="60"/><path fill="#fff" d="M195.44 100.67v13.47h13.47v-13.47h6.74v13.47h13.47v6.74h-13.47v13.47h13.47v6.74h-13.47v13.47h-6.74V141.1h-13.47v13.47h-6.74V141.1h-13.47v-6.74h13.47v-13.47h-13.47v-6.74h13.47v-13.47zm13.47 20.2h-13.47v13.48h13.47z"/><path fill="#fff" d="M122 33a95 95 0 0 1 82.26 47.46l-.16-.28L162.75 104a47.3 47.3 0 0 0-40.21-23.3H122a47.3 47.3 0 1 0 41.22 70.5l-.2.35 41.3 23.92A95 95 0 0 1 123.06 223H122a94.96 94.96 0 0 1-95-95 95 95 0 0 1 95-95"/></svg>
